polaris-icons/icons/SnapchatMinor.svg

<svg xmlns="http://www.w3.org/2000/svg" viewBox="0 0 20 20"><path fill-rule="evenodd" fill="#5C5F62" d="M13.9068 7.29248C13.7937 5.6207 13.2049 3.5 10.1421 3.5C7.07921 3.5 6.4905 5.6207 6.37734 7.29248C6.33693 7.88943 5.87506 8.21136 5.27748 8.24096C4.96619 8.25638 4.18375 7.86427 4.18375 8.375C4.18375 9.45833 6.35041 9.45833 6.35041 10.5417C6.35041 11.625 4.72541 13.25 3.64208 13.7917C2.55875 14.3333 3.98603 14.5053 4.72541 14.875C5.4648 15.2447 5.74303 16.3414 6.89208 15.9583C8.04113 15.5753 9.05875 16.5 10.1421 16.5C11.2254 16.5 12.243 15.5753 13.3921 15.9583C14.5411 16.3414 14.8194 15.2447 15.5587 14.875C16.2981 14.5053 17.7254 14.3333 16.6421 13.7917C15.5587 13.25 13.9337 11.625 13.9337 10.5417C13.9337 9.45833 16.1004 9.45833 16.1004 8.375C16.1004 7.86427 15.318 8.25638 15.0067 8.24096C14.4091 8.21136 13.9472 7.88943 13.9068 7.29248Z"/></svg>

<svg xmlns="http://www.w3.org/2000/svg" viewBox="0 0 20 20"><path fill-rule="evenodd" d="M13.907 7.292c-.113-1.671-.702-3.792-3.765-3.792s-3.651 2.12-3.765 3.792c-.04.597-.502.92-1.1.949-.31.015-1.093-.377-1.093.134 0 1.083 2.166 1.083 2.166 2.167 0 1.083-1.625 2.708-2.708 3.25-1.083.541.344.713 1.083 1.083.74.37 1.018 1.466 2.167 1.083 1.15-.383 2.167.542 3.25.542 1.083 0 2.101-.925 3.25-.542 1.15.383 1.427-.713 2.167-1.083.74-.37 2.166-.542 1.083-1.083-1.083-.542-2.708-2.167-2.708-3.25 0-1.084 2.166-1.084 2.166-2.167 0-.51-.782-.119-1.093-.134-.598-.03-1.06-.352-1.1-.949Z"/></svg>
